!!!COM: 米津玄師
!!!OTL: 感電
**kern	**kern	**text	**kern	**text	**kern	**text	**kern	**text
*part5	*part4	*part4	*part3	*part3	*part2	*part2	*part1	*part1
*staff5	*staff4	*staff4	*staff3	*staff3	*staff2	*staff2	*staff1	*staff1
*I"ピアノ	*I"ピアノ	*	*I"ピアノ	*	*I"ピアノ	*	*I"ピアノ	*
*I'Pno.	*I'Pno.	*	*I'Pno.	*	*I'Pno.	*	*I'Pno.	*
*clefF4	*clefG2	*	*clefG2	*	*clefG2	*	*clefGv2	*
*k[f#c#g#d#a#]	*k[f#c#g#d#a#]	*	*k[f#c#g#d#a#]	*	*k[f#c#g#d#a#]	*	*k[f#c#g#d#a#]	*
*M4/4	*M4/4	*	*M4/4	*	*M4/4	*	*M4/4	*
*met(c)	*met(c)	*	*met(c)	*	*met(c)	*	*met(c)	*
*MM94	*MM94	*	*MM94	*	*MM94	*	*MM94	*
=1	=1	=1	=1	=1	=1	=1	=1	=1
1r	1r	.	1r	.	1r	.	1r	.
=2	=2	=2	=2	=2	=2	=2	=2	=2
8r	8r	.	8r	.	8r	.	1r	.
16D#LL	16BLL	.	16d#LL	.	16dd#LL	pa	.	.
16D#JJ	16BJJ	.	16d#JJ	.	16dd#JJ	la	.	.
16D#LL	16BLL	.	16d#LL	.	16dd#LL	pa	.	.
16D#JJ	16BJJ	.	16d#JJ	.	16dd#JJ	la	.	.
16r	16r	.	16r	.	16r	.	.	.
16F#	16d#	.	16f#	.	16cc#	.	.	.
16r	16r	.	16r	.	16r	.	.	.
16F#	16d#	.	16f#	.	16cc#	.	.	.
8r	8r	.	8r	.	8r	.	.	.
4r	4r	.	4r	.	4r	.	.	.
=3	=3	=3	=3	=3	=3	=3	=3	=3
8GG#	8r	.	2d#	.	2b	.	8r	.
8r	16BLL	.	.	.	.	.	16d#LL	pa
.	16c#JJ	.	.	.	.	.	16eJJ	la
4GG#	16d#LL	.	.	.	.	.	16f#LL	pa
.	16d#JJ	.	.	.	.	.	16f#JJ	pa
.	16r	.	.	.	.	.	16r	.
.	[16c#	.	.	.	.	.	[16g#	pa
8C#	8c#L]	.	4f#	.	4a#	-uh-	8g#L]	.
8r	16c#L	.	.	.	.	.	16f#L	pa
.	16c#JJ	.	.	.	.	.	16eJJ	la
4C#	16c#LL	.	4e	.	4g#	.	16d#LL	pa
.	[16B	.	.	.	.	.	[16B	pa
.	16BJJ]	.	.	.	.	.	16BJJ]	.
.	16r	.	.	.	.	.	16r	.
=4	=4	=4	=4	=4	=4	=4	=4	=4
8FF#	8r	.	2d#	.	2g#	.	8r	.
8r	16BLL	.	.	.	.	.	16d#LL	pa
.	16c#JJ	.	.	.	.	.	16eJJ	la
4FF#	16d#LL	.	.	.	.	.	16f#LL	pa
.	16d#JJ	.	.	.	.	.	16f#JJ	pa
.	16r	.	.	.	.	.	16r	.
.	[16c#	.	.	.	.	.	[16g#	pa
8FF#	8c#L]	.	8.d#L	.	8.f#L	-tu	8g#L]	.
8r	16c#L	.	.	.	.	.	16f#L	pa
.	16c#JJ	.	16d#Jk	.	16f#Jk	lu	16eJJ	la
4D#	16c#LL	.	16r	.	16r	.	16d#LL	pa
.	[16B	.	8.d#	.	8.f#	tu	[16B	pa
.	16BJJ]	.	.	.	.	.	16BJJ]	.
.	16r	.	.	.	.	.	16r	.
=5	=5	=5	=5	=5	=5	=5	=5	=5
8E	8r	.	2d#	.	2f#	uh	8r	.
8r	16G#LL	.	.	.	.	.	16BLL	pa
.	16A#JJ	.	.	.	.	.	16c#JJ	la
4E	16BLL	.	.	.	.	.	16d#LL	pa
.	16BJJ	.	.	.	.	.	16d#JJ	pa
.	16r	.	.	.	.	.	16r	.
.	[16c#	.	.	.	.	.	[16e	pa
8D#	8c#L]	.	2d#	.	2f#	uh	8eL]	.
8r	16c#L	.	.	.	.	.	16d#L	pa
.	16c#JJ	.	.	.	.	.	16c#JJ	la
4D#	16c#LL	.	.	.	.	.	16BLL	pa
.	16BJJ	.	.	.	.	.	16G#JJ	pa
.	16r	.	.	.	.	.	16r	.
.	[16c#	.	.	.	.	.	[16e	pa
=6	=6	=6	=6	=6	=6	=6	=6	=6
8AA#	8c#L]	.	4B	.	4f#	ha-	8eL]	.
8r	16c#L	.	.	.	.	.	16d#L	pa
.	16c#JJ	.	.	.	.	.	16c#JJ	la
4AA#	16c#LL	.	4c#	.	4g#	.	16BLL	pa
.	16G#JJ	.	.	.	.	.	16G#JJ	pa
.	16r	.	.	.	.	.	16r	.
.	[16F##X	.	.	.	.	.	[16F##X	pa
8D#	4F##]	.	8d#	.	8a#	.	4F##]	.
8r	.	.	16r	.	16r	.	.	.
.	.	.	16f#	.	16dd#	-pa	.	.
4D#	4r	.	16r	.	16r	.	4r	.
.	.	.	16f#	.	16dd#	pa	.	.
.	.	.	8r	.	8r	.	.	.
=7	=7	=7	=7	=7	=7	=7	=7	=7
8GG#	8r	.	2r	.	2r	.	8r	.
8r	16BLL	.	.	.	.	.	16d#LL	pa
.	16c#JJ	.	.	.	.	.	16eJJ	la
4GG#	16d#LL	.	.	.	.	.	16f#LL	pa
.	16d#JJ	.	.	.	.	.	16f#JJ	pa
.	16r	.	.	.	.	.	16r	.
.	[16c#	.	.	.	.	.	[16g#	pa
8C#	8c#L]	.	4f#	.	4a#	fu-	8g#L]	.
8r	16c#L	.	.	.	.	.	16f#L	pa
.	16c#JJ	.	.	.	.	.	16eJJ	la
4C#	16c#LL	.	4e	.	4g#	.	16d#LL	pa
.	[16B	.	.	.	.	.	[16B	pa
.	16BJJ]	.	.	.	.	.	16BJJ]	.
.	16r	.	.	.	.	.	16r	.
=8	=8	=8	=8	=8	=8	=8	=8	=8
8FF#	8r	.	2d#	.	2g#	.	8r	.
8r	16BLL	.	.	.	.	.	16d#LL	pa
.	16c#JJ	.	.	.	.	.	16eJJ	la
4FF#	16d#LL	.	.	.	.	.	16f#LL	pa
.	16d#JJ	.	.	.	.	.	16f#JJ	pa
.	16r	.	.	.	.	.	16r	.
.	[16c#	.	.	.	.	.	[16g#	pa
8FF#	8c#L]	.	8.d#L	.	8.f#L	-tu	8g#L]	.
8r	16c#L	.	.	.	.	.	16f#L	pa
.	16c#JJ	.	16d#Jk	.	16f#Jk	lu	16eJJ	la
4D#	16c#LL	.	16r	.	16r	.	16d#LL	pa
.	[16B	.	8.d#	.	8.f#	tu	[16B	pa
.	16BJJ]	.	.	.	.	.	16BJJ]	.
.	16r	.	.	.	.	.	16r	.
=9	=9	=9	=9	=9	=9	=9	=9	=9
8E	8r	.	2e	.	2g#	oh	8r	.
8r	16G#LL	.	.	.	.	.	16BLL	pa
.	16A#JJ	.	.	.	.	.	16c#JJ	la
4E	16BLL	.	.	.	.	.	16d#LL	pa
.	16BJJ	.	.	.	.	.	16d#JJ	pa
.	16r	.	.	.	.	.	16r	.
.	[16c#	.	.	.	.	.	[16e	la
8D#	8c#L]	.	2f#	.	2b	oh	8eL]	.
8r	16c#L	.	.	.	.	.	16d#L	pa
.	16c#JJ	.	.	.	.	.	16c#JJ	la
4D#	16c#LL	.	.	.	.	.	16BLL	pa
.	[16B	.	.	.	.	.	[16G#	pa
.	16BJJ]	.	.	.	.	.	16G#JJ]	.
.	16r	.	.	.	.	.	16r	.
=10	=10	=10	=10	=10	=10	=10	=10	=10
2AA#	8r	.	8r	.	4r	.	4r	.
.	[8c#	tun	8r	.	.	.	.	.
.	4c#]	.	4f#	tun	8r	.	4r	.
.	.	.	.	.	8a#	tun	.	.
16AA#LL	16d#LL	da	16f#LL	da	16cc#LL	da	8r	.
16AA#JJ	16d#JJ	da	16f#JJ	da	16cc#JJ	da	.	.
8r	8r	.	8r	.	8r	.	16r	.
.	.	.	.	.	.	.	16D#	逃
4r	4r	.	4r	.	4r	.	16BKL	げ
.	.	.	.	.	.	.	8A#	だし
.	.	.	.	.	.	.	[16G#Jk	た
=11	=11	=11	=11	=11	=11	=11	=11	=11
8.GG#L	2d#	.	2f#	.	2b	fu-	8G#]	い
.	.	.	.	.	.	.	8r	.
16GG#Jk	.	.	.	.	.	.	.	.
4r	.	.	.	.	.	.	16A#LL	よ
.	.	.	.	.	.	.	16B	る
.	.	.	.	.	.	.	16c#	の
.	.	.	.	.	.	.	[16A#JJ	往
8.C#L	2e	.	2f#	.	2a#	.	8A#L]	.
.	.	.	.	.	.	.	8F#J	来
16C#Jk	.	.	.	.	.	.	.	.
4r	.	.	.	.	.	.	8D#L	行
.	.	.	.	.	.	.	16F#L	方
.	.	.	.	.	.	.	[16G#JJ	は
=12	=12	=12	=12	=12	=12	=12	=12	=12
8.FF#L	2d#	.	2f#	.	2b	.	8G#L]	.
.	.	.	.	.	.	.	16BK	未
16FF#Jk	.	.	.	.	.	.	8.A#	だ
4r	.	.	.	.	.	.	.	.
.	.	.	.	.	.	.	16F#L	不明
.	.	.	.	.	.	.	[16D#JJ	.
8.BBL	8.d#L	.	8.f#L	.	8.bL	-tu	8D#]	.
.	.	.	.	.	.	.	8r	.
16BBJk	16d#Jk	.	16f#Jk	.	16bJk	lu	.	.
4r	16r	.	16r	.	16r	.	8C#L	回
.	8.d#	.	8.f#	.	8.b	tu	.	.
.	.	.	.	.	.	.	16BBL	り
.	.	.	.	.	.	.	[16C#JJ	回
=13	=13	=13	=13	=13	=13	=13	=13	=13
8.EL	2B	.	2e	.	2g#	uh-	8C#L]	.
.	.	.	.	.	.	.	16G#Jk	って
16EJk	.	.	.	.	.	.	16r	.
4r	.	.	.	.	.	.	16F#KL	む
.	.	.	.	.	.	.	8D#	なし
.	.	.	.	.	.	.	[16C#Jk	くっ
8.D#L	2B	.	2d#	.	2g#	.	8C#L]	.
.	.	.	.	.	.	.	16G#Jk	て
16D#Jk	.	.	.	.	.	.	16r	.
4r	.	.	.	.	.	.	16F#KL	こ
.	.	.	.	.	.	.	8D#	まっ
.	.	.	.	.	.	.	[16C#Jk	ちゃ
=14	=14	=14	=14	=14	=14	=14	=14	=14
8.AA#L	2c#	.	2d#	.	2f#	.	8C#L]	っ
.	.	.	.	.	.	.	16D#L	た
16AA#Jk	.	.	.	.	.	.	16C#JJ	ワン
4r	.	.	.	.	.	.	16r	.
.	.	.	.	.	.	.	16BB	ワン
.	.	.	.	.	.	.	16r	.
.	.	.	.	.	.	.	[16AA#	ワン
8.D#L	16r	.	4r	.	16r	.	16AA#]	.
.	8f#	.	.	.	8cc#	-wa	16r	.
.	.	.	.	.	.	.	16r	.
16D#Jk	16r	.	.	.	16r	.	16D#	う
4r	16r	.	16d#KL	.	16r	.	16BKL	し
.	16d#	.	8c#	.	16b	pa	8A#	なっ
.	16r	.	.	.	16r	.	.	.
.	[16d#	.	[16BJk	.	[16b	pa-	[16G#Jk	た
=15	=15	=15	=15	=15	=15	=15	=15	=15
8.GG#L	2d#]	.	8B]	.	2b]	.	8G#]	.
.	.	.	16r	.	.	.	16r	.
16GG#Jk	.	.	16B	.	.	.	16G#	つ
4r	.	.	16c#LL	.	.	.	16A#LL	も
.	.	.	16d#	.	.	.	16B	り
.	.	.	16e	.	.	.	16c#	も
.	.	.	[16c#JJ	.	.	.	[16A#JJ	ない
8.C#L	2c#	.	8c#L]	.	2a#	-ah-	8A#L]	.
.	.	.	8A#J	.	.	.	8F#J	が
16C#Jk	.	.	.	.	.	.	.	.
4r	.	.	8F#L	.	.	.	8D#L	何
.	.	.	16A#L	.	.	.	16F#L	か
.	.	.	[16BJJ	.	.	.	[16G#JJ	足
=16	=16	=16	=16	=16	=16	=16	=16	=16
8.FF#L	2.d#	.	8BL]	.	2.f#	.	8G#L]	.
.	.	.	16d#K	.	.	.	16BK	り
16FF#Jk	.	.	8.c#	.	.	.	8.A#	ない
4r	.	.	.	.	.	.	.	.
.	.	.	16A#L	.	.	.	16F#L	気
.	.	.	[16F#JJ	.	.	.	[16D#JJ	分
8.BBL	.	.	8F#]	.	.	.	8D#]	.
.	.	.	8r	.	.	.	8r	.
16BBJk	.	.	.	.	.	.	.	.
4r	16r	.	16r	.	16r	.	8F#L	ちょっ
.	8.d#	.	8.f#	.	8.a#	-fu-	.	.
.	.	.	.	.	.	.	16F#L	と
.	.	.	.	.	.	.	[16G#JJ	変
=17	=17	=17	=17	=17	=17	=17	=17	=17
8.EL	2d#	.	2g#	.	2b	.	8G#L]	.
.	.	.	.	.	.	.	16d#Jk	に
16EJk	.	.	.	.	.	.	16r	.
4r	.	.	.	.	.	.	8c#L	ハイ
.	.	.	.	.	.	.	16BL	に
.	.	.	.	.	.	.	[16G#JJ	なっ
8.D#L	2e	.	2g#	.	2b	.	8G#L]	.
.	.	.	.	.	.	.	16d#Jk	て
16D#Jk	.	.	.	.	.	.	16r	.
4r	.	.	.	.	.	.	16c#KL	吹
.	.	.	.	.	.	.	8B	かし
.	.	.	.	.	.	.	[16G#Jk	こん
=18	=18	=18	=18	=18	=18	=18	=18	=18
8.AA#L	2f#	.	2a#	.	2a#	.	8G#L]	.
.	.	.	.	.	.	.	16d#K	だ
16AA#Jk	.	.	.	.	.	.	8e	四
16r	.	.	.	.	.	.	.	.
8.AA#	.	.	.	.	.	.	16d#L	輪
.	.	.	.	.	.	.	16c#	.
.	.	.	.	.	.	.	[16cnJJ	車
16r	8r	.	4r	.	4r	.	4c]	.
16F#KL	.	.	.	.	.	.	.	.
8A#J	8a#	tun	.	.	.	.	.	.
16G#LL	16g#LL	tu	4a#	.	4cc#	-ha	4r	.
16F#	16f#	lu	.	.	.	.	.	.
16D#	16d#	lu	.	.	.	.	.	.
16F#JJ	16f#JJ	lu	.	.	.	.	.	.
=19	=19	=19	=19	=19	=19	=19	=19	=19
8C#	2g#	.	8r	.	2b	uh	8r	.
8r	.	.	8f#L	.	.	.	8d#L	兄弟
8C#	.	.	8d#	.	.	.	8B	.
8r	.	.	8eJ	.	.	.	8c#J	よ
8D#	16r	.	8r	.	16r	.	8r	.
.	16BLL	.	.	.	16f#LL	pa	.	.
8r	16B	.	8f#L	.	16f#	pa	8d#L	如何か
.	16BJJ	.	.	.	16f#JJ	la	.	.
8D#	16f#LL	.	8d#	.	16dd#LL	pa	8B	.
.	16eJJ	.	.	.	16cc#JJ	la	.	.
8r	16r	.	8eJ	.	16r	.	8c#J	しよう
.	[16d#	.	.	.	[16b	pa	.	.
=20	=20	=20	=20	=20	=20	=20	=20	=20
8GG#	2d#]	.	8r	.	2b]	.	8r	.
8r	.	.	8f#	.	.	.	8d#	もう
8GG#	.	.	16d#LL	.	.	.	16BLL	な
.	.	.	16d#J	.	.	.	16BJ	に
8r	.	.	8eJ	.	.	.	8c#J	も
8BB	4r	.	8f#L	.	4r	.	8d#L	考え
8r	.	.	8g#	.	.	.	8e	.
8BB	8g#L	.	8f#	.	8dd#L	tun	8d#	ない
8r	8g#J	.	8d#J	.	8dd#J	tun	8BJ	よう
=21	=21	=21	=21	=21	=21	=21	=21	=21
8Fn	8r	.	8r	.	8r	.	8r	.
8r	[8e	.	[8g#	.	[8b	fu-	8G#	銀
8F	2e]	.	2g#]	.	2b]	.	16BKL	河
.	.	.	.	.	.	.	8f#	系
8r	.	.	.	.	.	.	.	.
.	.	.	.	.	.	.	[16eJk	の
8E	.	.	.	.	.	.	16e]	.
.	.	.	.	.	.	.	16r	.
8r	.	.	.	.	.	.	8d#	は
8E	4e	.	4g#	.	4a#	.	16c#KL	ず
.	.	.	.	.	.	.	8B	れ
8r	.	.	.	.	.	.	.	.
.	.	.	.	.	.	.	[16A#Jk	へと
=22	=22	=22	=22	=22	=22	=22	=22	=22
8AA#	2A#	.	2d#	.	2f#	.	8A#L]	.
8r	.	.	.	.	.	.	16A#L	さ
.	.	.	.	.	.	.	[16BJJ	よう
8AA#	.	.	.	.	.	.	8BL]	.
8r	.	.	.	.	.	.	16c#L	な
.	.	.	.	.	.	.	[16d#JJ	ら
8D#L	16r	.	16r	.	16r	.	4d#]	.
.	16BLL	.	16d#LL	.	16f#LL	-pa	.	.
8AA#	16B	.	16d#	.	16f#	pa	.	.
.	16BJJ	.	16d#JJ	.	16f#JJ	la	.	.
8D#	16d#LL	.	16f#LL	.	16g#LL	pa	4r	.
.	16B	.	16d#	.	16f#	la	.	.
8C#J	16d#	.	16f#JJ	.	16g#	pa	.	.
.	16f#JJ	.	16r	.	16dd#JJ	pa	.	.
=23	=23	=23	=23	=23	=23	=23	=23	=23
8C#	16r	.	8r	.	16r	.	8r	.
.	16e	.	.	.	16cc#	pa	.	.
8r	8r	.	8f#L	.	16r	.	8d#L	真
.	.	.	.	.	16r	.	.	.
8C#	4r	.	8d#	.	4r	.	8B	実
8r	.	.	8eJ	.	.	.	8c#J	も
8D#	4r	.	8r	.	4r	.	8r	.
8r	.	.	8f#L	.	.	.	8d#L	道
8D#	4f#	.	8d#	.	4b	uh	8B	徳
8r	.	.	8eJ	.	.	.	8c#J	も
=24	=24	=24	=24	=24	=24	=24	=24	=24
4GG#	4d#	.	8BL	.	4g#	oh-	8F#L	動
.	.	.	8f#J	.	.	.	8d#J	作し
4GGn	4dn	.	8eL	.	4gn	.	8c#L	ない
.	.	.	16f#L	.	.	.	16d#L	イ
.	.	.	[16g#JJ	.	.	.	[16eJJ	カ
4FF#	4c#	.	16g#LL]	.	4f#	.	16eLL]	.
.	.	.	16f#	.	.	.	16d#	れ
.	.	.	16e	.	.	.	16c#	た
.	.	.	16f#JJ	.	.	.	16d#JJ	夜
4BB	4B	.	16eLL	.	4f#	.	16c#LL	.
.	.	.	16d#J	.	.	.	16BJ	で
.	.	.	8d#J	.	.	.	8BJ	も
=25	=25	=25	=25	=25	=25	=25	=25	=25
8Fn	2d#	.	2g#	wa-	2b	-wa	8r	.
8r	.	.	.	.	.	.	8G#	ぼ
4F	.	.	.	.	.	.	16BLL	く
.	.	.	.	.	.	.	16c#JJ	ら
.	.	.	.	.	.	.	16r	.
.	.	.	.	.	.	.	[16d#	手を
8E	2d#	.	2g#	.	4b	uh-	8d#L]	.
8r	.	.	.	.	.	.	16BK	た
.	.	.	.	.	.	.	8.G#	たい
4E	.	.	.	.	4dd#	.	.	.
.	.	.	.	.	.	.	16c#L	て
.	.	.	.	.	.	.	[16A#JJ	笑
=26	=26	=26	=26	=26	=26	=26	=26	=26
8D#	2c#	.	2f#	.	4cc#	.	8A#L]	.
8r	.	.	.	.	.	.	16F#K	.
.	.	.	.	.	.	.	8.D#	い
4D#	.	.	.	.	4ff#	.	.	.
.	.	.	.	.	.	.	16A#L	あ
.	.	.	.	.	.	.	[16BJJ	う
8Dn	2fn	.	2g#	.	2b	.	4B]	.
8r	.	.	.	.	.	.	.	.
4D	.	.	.	.	.	.	8r	.
.	.	.	.	.	.	.	16G#LL	だ
.	.	.	.	.	.	.	[16F#JJ	れ
=27	=27	=27	=27	=27	=27	=27	=27	=27
8C#	2B	fu-	4e	-uh	2e	-fu	8F#L]	.
8r	.	.	.	.	.	.	16BBL	に
.	.	.	.	.	.	.	[16BBJJ	も
4C#	.	.	4b	.	.	.	4BB]	.
8Cn	2A#	.	2d#	.	2e	.	8r	.
8r	.	.	.	.	.	.	16G#KL	知
.	.	.	.	.	.	.	8.F#	ら
4C	.	.	.	.	.	.	.	.
.	.	.	.	.	.	.	16BBL	れ
.	.	.	.	.	.	.	[16C#JJ	ない
=28	=28	=28	=28	=28	=28	=28	=28	=28
1BB	1G#	-uh	4B	.	4d#	uh	16C#LL]	.
.	.	.	.	.	.	.	16BBJJ	ま
.	.	.	.	.	.	.	4BB	ま
.	.	.	2d#	.	2g#	ha	.	.
.	.	.	.	.	.	.	8r	.
.	.	.	.	.	.	.	2r	.
.	.	.	4B	.	4f#	a	.	.
=29	=29	=29	=29	=29	=29	=29	=29	=29
8r	8r	.	8r	.	8r	.	2r	.
16D#LL	16BLL	.	16d#LL	.	16g#LL	pa	.	.
16D#JJ	16BJJ	.	16d#JJ	.	16g#JJ	la	.	.
16C#LL	16BLL	.	16d#LL	.	16g#LL	pa	.	.
16BBJJ	16BJJ	.	16d#JJ	.	16g#JJ	la	.	.
16r	16r	.	16r	.	16r	.	.	.
16F#	16d#	.	16f#	.	16dd#	pa	.	.
16r	16r	.	16r	.	16r	.	4r	.
16F#	16d#	.	16f#	.	16dd#	pa	.	.
8r	8r	.	8r	.	8r	.	.	.
4r	4r	.	8BL	.	4r	.	8G#L	たっ
.	.	.	16c#L	.	.	.	16A#L	た
.	.	.	[16d#JJ	.	.	.	[16BJJ	一
=30	=30	=30	=30	=30	=30	=30	=30	=30
8GG#	4r	.	4d#]	.	4r	.	4B]	.
8r	.	.	.	.	.	.	.	.
8.GG#L	4f#	.	8.a#L	.	4a#	woh	8.f#L	瞬
16GG#Jk	.	.	16a#Jk	.	.	.	16f#Jk	の
8C#	2fn	.	8.b	.	2g#	oh	8.g#	.
8r	.	.	.	.	.	.	.	.
.	.	.	16r	.	.	.	16r	.
8.C#L	.	.	16g#KL	.	.	.	16eKL	こ
.	.	.	8f#	.	.	.	8d#	の
16C#Jk	.	.	[16eJk	.	.	.	[16c#Jk	きら
=31	=31	=31	=31	=31	=31	=31	=31	=31
8FF#	4r	.	4e]	.	4r	.	4c#]	.
8r	.	.	.	.	.	.	.	.
8.FF#L	4e	.	8a#L	.	4g#	woh	8f#L	め
.	.	.	16g#L	.	.	.	16eL	き
16FF#Jk	.	.	[16f#JJ	.	.	.	[16d#JJ	を
8BB	2d#	.	8.f#]	.	2f#	oh	8.d#]	.
8r	.	.	.	.	.	.	.	.
.	.	.	16r	.	.	.	16r	.
8.BBL	.	.	4r	.	.	.	16BKL	食
.	.	.	.	.	.	.	8A#	べ
16BBJk	.	.	.	.	.	.	[16G#Jk	尽く
=32	=32	=32	=32	=32	=32	=32	=32	=32
8E	8.BL	tu	8.d#L	.	8.f#L	tu	4G#]	.
8r	.	.	.	.	.	.	.	.
.	16BJk	lu	16d#Jk	.	16f#Jk	lu	.	.
8.EL	16r	.	16r	.	16r	.	8.d#L	そう
.	8.B	tu	8.d#	.	8.f#	tu	.	.
16EJk	.	.	.	.	.	.	16d#Jk	二
8D#	4B	tu	8.d#L	.	8.f#L	tu	8c#L	人
8r	.	.	.	.	.	.	16BK	.
.	.	.	16d#Jk	.	16f#Jk	lu	8.G#	で
8.D#L	8r	.	16r	.	16r	.	.	.
.	.	.	8.d#	.	8.f#	tu	.	.
.	16BLL	く	.	.	.	.	16G#L	く
16D#Jk	[16c#JJ	た	.	.	.	.	[16A#JJ	た
=33	=33	=33	=33	=33	=33	=33	=33	=33
8C#	8c#L]	.	4r	.	4r	.	8A#L]	.
8r	16BK	ば	.	.	.	.	16G#K	ば
.	8A#	る	.	.	.	.	8F##X	る
8.C#L	.	.	4c#	uh	4f#	uh	.	.
.	8B	ま	.	.	.	.	8G#	ま
16C#Jk	[16BJk	で	.	.	.	.	[16G#Jk	で
8G#	8.BL]	.	16d#LL	pa	16g#LL	pa	8.G#]	.
.	.	.	16c#JJ	la	16f#JJ	la	.	.
8r	.	.	16r	.	16r	.	.	.
.	16BJk	pa	16B	pa	16f#	pa	16r	.
4D#	16r	.	8BL	そし	16r	.	8G#L	そし
.	8.c#	pa	.	.	8.f#	pa	.	.
.	.	.	16c#L	て	.	.	16A#L	て
.	.	.	[16d#JJ	幸	.	.	[16BJJ	幸
=34	=34	=34	=34	=34	=34	=34	=34	=34
8GG#	4r	.	4d#]	.	4r	.	4B]	.
8r	.	.	.	.	.	.	.	.
8.GG#L	4f#	.	8.a#L	運	4a#	woh	8.f#L	運
16GG#Jk	.	.	16a#Jk	を	.	.	16f#Jk	を
8C#	2fn	.	8.b	.	2g#	oh	8.g#	.
8r	.	.	.	.	.	.	.	.
.	.	.	16r	.	.	.	16r	.
8.C#L	.	.	8g#L	僕	.	.	8eL	僕
.	.	.	16f#L	ら	.	.	16d#L	ら
16C#Jk	.	.	[16eJJ	に	.	.	[16c#JJ	に
=35	=35	=35	=35	=35	=35	=35	=35	=35
8FF#	4r	.	4e]	.	4r	.	4c#]	.
8r	.	.	.	.	.	.	.	.
8.C#L	4e	.	8a#L	祈り	4g#	woh	8f#L	祈り
.	.	.	16g#L	.	.	.	16eL	.
16CnJk	.	.	[16f#JJ	を	.	.	[16d#JJ	を
8BB	2d#	.	8.f#]	.	2f#	oh	8.d#]	.
8r	.	.	.	.	.	.	.	.
.	.	.	16r	.	.	.	16r	.
8.BBL	.	.	4r	.	.	.	16BKL	ま
.	.	.	.	.	.	.	8A#	だ
16BBJk	.	.	.	.	.	.	[16G#Jk	行
=36	=36	=36	=36	=36	=36	=36	=36	=36
8E	8r	.	8r	.	4r	.	4G#]	こう
8r	8B	.	8d#	pa	.	.	.	.
8.EL	16r	.	16r	.	16f#LL	-だ	16d#LL	だ
.	8B	.	8d#	pa	16f#	れ	16d#	れ
.	.	.	.	.	16f#	も	16d#	も
16EJk	16r	.	16r	.	[16g#JJ	追い	[16eJJ	追い
8D#	8.BL	.	8.d#L	pa	8g#L]	.	8eL]	.
8r	.	.	.	.	16f#K	つけ	16d#K	つけ
.	16BJk	.	16d#Jk	pa	8.e	ない	8.c#	ない
8.D#L	4r	.	4r	.	.	.	.	.
.	.	.	.	.	16d#L	く	16BL	く
16D#Jk	.	.	.	.	[16c#JJ	らい	[16A#JJ	らい
=37	=37	=37	=37	=37	=37	=37	=37	=37
8FF#	2c#	.	2e	uh	8c#L]	.	8A#L]	.
8r	.	.	.	.	16BK	の	16G#K	の
.	.	.	.	.	8.c#	スピー	8.A#	スピー
8.FF#L	.	.	.	.	.	.	.	.
.	.	.	.	.	[16d#Jk	ドで	16BL	ド
16FF#Jk	.	.	.	.	4d#]	.	[16BJJ	で
8BB	4d#	.	4f#	ha	.	.	4B]	.
8r	.	.	.	.	.	.	.	.
.	.	.	.	.	16r	.	.	.
4BB	4f#	.	4a#	ah	4r	.	4r	.
=38	=38	=38	=38	=38	=38	=38	=38	=38
4E	4g#	dun	8r	.	8r	.	8r	.
.	.	.	8b	.	8g#	tun	16BLL	い
.	.	.	.	.	.	.	[16A#JJ	な
4GG#	4c#	dun	8r	.	8r	.	8A#L]	.
.	.	.	8a#	.	8a#	tun	16g#L	ずま
.	.	.	.	.	.	.	[16f#JJ	の
4D#	4f#	dun	8r	.	8r	.	8f#L]	.
.	.	.	8cc#	.	8f#	tun	16BL	様
.	.	.	.	.	.	.	[16c#JJ	に
4AA#	4d#	dun	8r	.	8r	.	8c#L]	.
.	.	.	8b	.	8g#	tun	16d#L	生
.	.	.	.	.	.	.	[16c#JJ	き
=39	=39	=39	=39	=39	=39	=39	=39	=39
4C#	4e	dun	8r	.	8r	.	8c#L]	.
.	.	.	8a#	.	8f#	tun	16BL	て
.	.	.	.	.	.	.	[16eJJ	たい
4D#	4f#	dun	8r	.	8r	.	8eL]	.
.	.	.	8b	.	8g#	tun	16d#L	だ
.	.	.	.	.	.	.	[16BJJ	け
2BB	2d#	ha	16bLL	.	16f#LL	pa	8B]	.
.	.	.	16a#	.	16e	la	.	.
.	.	.	16g#	.	16d#	pa	8r	.
.	.	.	[16f#JJ	.	[16d#JJ	pa	.	.
.	.	.	16f#LL]	.	16d#LL]	.	8r	.
.	.	.	16eJ	.	16c#J	la	.	.
.	.	.	8d#J	.	8BJ	pa	16G#LL	お
.	.	.	.	.	.	.	16A#JJ	ま
=40	=40	=40	=40	=40	=40	=40	=40	=40
2C#	2G#	-fu-	4r	.	2g#	fu-	8.BL	え
.	.	.	.	.	.	.	16BJk	は
.	.	.	4r	.	.	.	8A#L	どう
.	.	.	.	.	.	.	16G#L	し
.	.	.	.	.	.	.	[16F#JJ	たい
4.BB	4.B	.	4r	.	4.f#	.	4F#]	？
.	.	.	8r	.	.	.	8r	.
8r	8r	.	8d#	.	8r	.	8B	返
=41	=41	=41	=41	=41	=41	=41	=41	=41
1r	2r	.	8.c#L	.	2r	.	8.A#L	事
.	.	.	16A#Jk	.	.	.	16F#Jk	は
.	.	.	16A#LL	.	.	.	16F#LL	い
.	.	.	16A#JJ	.	.	.	16F#JJ	ら
.	.	.	4B	.	.	.	4G#	ない
.	16r	.	.	.	16r	.	.	.
.	[16d#KL	-ha	.	.	[16f#KL	-ha	.	.
.	8d#J_	.	8r	.	8f#J_	.	8r	.
.	4d#]	.	4r	.	4f#]	.	4r	.
=42	=42	=42	=42	=42	=42	=42	=42	=42
8GG#	8r	.	4g#	.	4b	dan	8r	.
8r	16BLL	.	.	.	.	.	16d#LL	pa
.	16c#JJ	.	.	.	.	.	16eJJ	la
4GG#	16d#LL	.	4r	.	4r	.	16f#LL	pa
.	16d#JJ	.	.	.	.	.	16f#JJ	pa
.	16r	.	.	.	.	.	16r	.
.	[16c#	.	.	.	.	.	[16g#	pa
8C#	8c#L]	.	4f#	.	4a#	fu-	8g#L]	.
8r	16c#L	.	.	.	.	.	16f#L	pa
.	16c#JJ	.	.	.	.	.	16eJJ	la
4C#	16c#LL	.	4e	.	4g#	.	16d#LL	pa
.	[16B	.	.	.	.	.	[16B	pa
.	16BJJ]	.	.	.	.	.	16BJJ]	.
.	16r	.	.	.	.	.	16r	.
=43	=43	=43	=43	=43	=43	=43	=43	=43
8FF#	8r	.	2d#	.	2g#	.	8r	.
8r	16BLL	.	.	.	.	.	16d#LL	pa
.	16c#JJ	.	.	.	.	.	16eJJ	la
4FF#	16d#LL	.	.	.	.	.	16f#LL	pa
.	16d#JJ	.	.	.	.	.	16f#JJ	pa
.	16r	.	.	.	.	.	16r	.
.	[16c#	.	.	.	.	.	[16g#	pa
8FF#	8c#L]	.	8.d#L	.	8.f#L	-tu	8g#L]	.
8r	16c#L	.	.	.	.	.	16f#L	pa
.	16c#JJ	.	16d#Jk	.	16f#Jk	lu	16eJJ	la
4D#	16c#LL	.	16r	.	16r	.	16d#LL	pa
.	[16B	.	8.d#	.	8.f#	tu	[16B	pa
.	16BJJ]	.	.	.	.	.	16BJJ]	.
.	16r	.	.	.	.	.	16r	.
=44	=44	=44	=44	=44	=44	=44	=44	=44
8E	8r	.	2e	.	2g#	fu-	8r	.
8r	16G#LL	.	.	.	.	.	16BLL	pa
.	16A#JJ	.	.	.	.	.	16c#JJ	la
4E	16BLL	.	.	.	.	.	16d#LL	pa
.	16BJJ	.	.	.	.	.	16d#JJ	pa
.	16r	.	.	.	.	.	16r	.
.	[16c#	.	.	.	.	.	[16e	pa
8D#	8c#L]	.	[2f#	.	2b	.	8eL]	.
8r	16c#L	.	.	.	.	.	16d#L	pa
.	16c#JJ	.	.	.	.	.	16c#JJ	la
4D#	16c#LL	.	.	.	.	.	16BLL	pa
.	[16B	.	.	.	.	.	[16G#	pa
.	16BJJ]	.	.	.	.	.	16G#JJ]	.
.	16r	.	.	.	.	.	16r	.
=45	=45	=45	=45	=45	=45	=45	=45	=45
2.AA#	2.c#	tun	4f#]	.	4r	.	4r	.
.	.	.	16f#LL	tu	2a#	-tun	4r	.
.	.	.	16e	lu	.	.	.	.
.	.	.	16d#	lu	.	.	.	.
.	.	.	16c#JJ	lu	.	.	.	.
.	.	.	16c#LL	tu	.	.	8r	.
.	.	.	16BJ	lu	.	.	.	.
.	.	.	8A#J	lu	.	.	16r	.
.	.	.	.	.	.	.	16D#	こ
4r	4r	.	4r	.	4r	.	16BKL	ろ
.	.	.	.	.	.	.	8A#	がし
.	.	.	.	.	.	.	[16G#Jk	た
=46	=46	=46	=46	=46	=46	=46	=46	=46
1r	2B	.	2d#	.	2g#	fon	8G#]	.
.	.	.	.	.	.	.	8r	.
.	.	.	.	.	.	.	16A#LL	車
.	.	.	.	.	.	.	16B	窓
.	.	.	.	.	.	.	16c#	と
.	.	.	.	.	.	.	[16A#JJ	情
.	2d#	.	2f#	.	2a#	fon	8A#L]	.
.	.	.	.	.	.	.	8F#J	景
.	.	.	.	.	.	.	8D#L	動
.	.	.	.	.	.	.	16F#L	機
.	.	.	.	.	.	.	[16G#JJ	は
=47	=47	=47	=47	=47	=47	=47	=47	=47
1r	2B	.	2B	.	2d#	fon	8G#L]	.
.	.	.	.	.	.	.	16BK	.
.	.	.	.	.	.	.	8.A#	未だ
.	.	.	.	.	.	.	16F#L	不
.	.	.	.	.	.	.	[16D#JJ	明
.	2B	.	2g#	.	2g#	fon	8D#]	.
.	.	.	.	.	.	.	8r	.
.	.	.	.	.	.	.	8C#L	邪
.	.	.	.	.	.	.	16BBL	魔
.	.	.	.	.	.	.	[16C#JJ	臭
=48	=48	=48	=48	=48	=48	=48	=48	=48
1r	2G#	.	2d#	.	2f#	fon	8C#L]	く
.	.	.	.	.	.	.	16G#Jk	て
.	.	.	.	.	.	.	16r	.
.	.	.	.	.	.	.	16F#KL	イ
.	.	.	.	.	.	.	8D#	ラ
.	.	.	.	.	.	.	[16C#Jk	つい
.	2B	.	2g#	.	2g#	fon	8C#L]	.
.	.	.	.	.	.	.	16G#Jk	て
.	.	.	.	.	.	.	16r	.
.	.	.	.	.	.	.	16F#KL	ま
.	.	.	.	.	.	.	8D#	よい
.	.	.	.	.	.	.	[16C#Jk	こん
=49	=49	=49	=49	=49	=49	=49	=49	=49
1r	2c#	.	2an	.	2f#	fon	8C#L]	.
.	.	.	.	.	.	.	16D#L	だ
.	.	.	.	.	.	.	16C#JJ	ニャン
.	.	.	.	.	.	.	16r	.
.	.	.	.	.	.	.	16BB	ニャン
.	.	.	.	.	.	.	16r	.
.	.	.	.	.	.	.	[16AA#	ニャン
.	8r	.	2a#X	.	8r	.	16AA#]	.
.	.	.	.	.	.	.	16r	.
.	8f#	nya!	.	.	8cc#	nya!	16r	.
.	.	.	.	.	.	.	16D#	こ
.	16r	.	.	.	16r	.	16BKL	こい
.	16d#	.	.	.	16b	pa	8A#	ら
.	16r	.	.	.	16r	.	.	.
.	[16d#	.	.	.	[16b	pa-	[16G#Jk	で
=50	=50	=50	=50	=50	=50	=50	=50	=50
8.GG#L	2d#]	.	8r	.	2b]	.	8G#]	.
.	.	.	16r	.	.	.	16r	.
16GG#Jk	.	.	16B	.	.	.	16G#	落
4r	.	.	16c#LL	.	.	.	16A#LL	と
.	.	.	16d#	.	.	.	16B	し
.	.	.	16e	.	.	.	16c#	た
.	.	.	[16c#JJ	.	.	.	[16A#JJ	財
8.C#L	2c#	.	8c#L]	.	2a#	.	8A#L]	.
.	.	.	8A#J	.	.	.	8F#J	布
16C#Jk	.	.	.	.	.	.	.	.
4r	.	.	8F#L	.	.	.	8D#L	誰
.	.	.	16A#L	.	.	.	16F#L	か
.	.	.	[16BJJ	.	.	.	[16G#JJ	見
=51	=51	=51	=51	=51	=51	=51	=51	=51
8.FF#L	2.d#	.	8BL]	.	2.f#	.	8G#L]	.
.	.	.	16d#K	.	.	.	16BK	ま
16FF#Jk	.	.	8.c#	.	.	.	8.A#	せん
4r	.	.	.	.	.	.	.	.
.	.	.	16A#L	.	.	.	16F#L	でし
.	.	.	[16F#JJ	.	.	.	[16D#JJ	た
8.BBL	.	.	8F#]	.	.	.	8D#]	？
.	.	.	8r	.	.	.	8r	.
16BBJk	.	.	.	.	.	.	.	.
4r	16r	.	16r	.	16r	.	8F#L	馬鹿
.	8.d#	.	8.f#	.	8.a#	-fu	.	.
.	.	.	.	.	.	.	16F#L	み
.	.	.	.	.	.	.	[16G#JJ	た
=52	=52	=52	=52	=52	=52	=52	=52	=52
8.EL	16r	.	16r	.	16r	.	8G#L]	い
.	16d#	.	16g#	.	16b	ta	.	.
.	16r	.	16r	.	16r	.	16d#Jk	に
16EJk	16d#	.	16g#	.	16b	ta	16r	.
4r	4r	.	4r	.	4r	.	8c#L	つい
.	.	.	.	.	.	.	16BL	て
.	.	.	.	.	.	.	[16G#JJ	ない
8.D#L	16r	.	16r	.	16r	.	8G#L]	.
.	16f#	.	16g#	.	16dd#	ta	.	.
.	16r	.	16r	.	16r	.	16d#Jk	ね
16D#Jk	16f#	.	16g#	.	16dd#	ta	16r	.
4r	4r	.	4r	.	4r	.	16c#KL	茶
.	.	.	.	.	.	.	8B	化し
.	.	.	.	.	.	.	[16G#Jk	てく
=53	=53	=53	=53	=53	=53	=53	=53	=53
8.AA#L	16r	.	16r	.	16r	.	8G#L]	.
.	16f#	.	16a#	.	16cc#	ta	.	.
.	16r	.	16r	.	16r	.	16d#K	れ
16AA#Jk	16f#	.	16a#	.	16cc#	ta	8e	ハイ
16r	4r	.	4r	.	4r	.	.	.
8.AA#	.	.	.	.	.	.	16d#L	ウェイ
.	.	.	.	.	.	.	16c#	.
.	.	.	.	.	.	.	[16cnJJ	スター
16r	8r	.	16r	.	16r	.	4c]	.
16F#KL	.	.	16f#KL	.	16cc#KL	ta	.	.
8A#J	8a#	tun	8a#J	.	8cc#J	tan	.	.
16G#LL	16g#LL	tu	4a#	.	4cc#	ha	4r	.
16F#	16f#	lu	.	.	.	.	.	.
16D#	16d#	lu	.	.	.	.	.	.
16F#JJ	16f#JJ	lu	.	.	.	.	.	.
=54	=54	=54	=54	=54	=54	=54	=54	=54
8C#	2g#	.	8r	.	2b	uh	8r	.
8r	.	.	8f#L	.	.	.	8d#L	よう
8C#	.	.	8d#	.	.	.	8B	相
8r	.	.	8eJ	.	.	.	8c#J	棒
8D#	16r	.	8r	.	16r	.	8r	.
.	16BLL	.	.	.	16f#LL	pa	.	.
8r	16B	.	8f#L	.	16f#	pa	8d#L	もう
.	16BJJ	.	.	.	16f#JJ	pa	.	.
8D#	16f#LL	.	8d#	.	16dd#LL	pa	8B	一
.	16eJJ	.	.	.	16cc#JJ	la	.	.
8r	16r	.	8eJ	.	16r	.	8c#J	丁
.	[16d#	.	.	.	[16b	pa	.	.
=55	=55	=55	=55	=55	=55	=55	=55	=55
8GG#	2d#]	.	8r	.	2b]	.	8r	.
8r	.	.	8f#	.	.	.	8d#	漫
8GG#	.	.	16d#LL	.	.	.	16BLL	画
.	.	.	16d#J	.	.	.	16BJ	み
8r	.	.	8eJ	.	.	.	8c#J	たい
8BB	4r	.	8f#L	.	4r	.	8d#L	な
8r	.	.	8g#	.	.	.	8e	ケンカ
8BB	8g#L	.	8f#	.	8dd#L	tun	8d#	しよう
8r	8g#J	.	8d#J	.	8dd#J	tun	8BJ	よ
=56	=56	=56	=56	=56	=56	=56	=56	=56
8Fn	8r	.	8r	.	8r	.	8r	.
8r	[8e	.	[8g#	.	[8b	fu-	8G#	洒落に
8F	2e]	.	2g#]	.	2b]	.	16BKL	.
.	.	.	.	.	.	.	8f#	なん
8r	.	.	.	.	.	.	.	.
.	.	.	.	.	.	.	[16eJk	ない
8E	.	.	.	.	.	.	16e]	.
.	.	.	.	.	.	.	16r	.
8r	.	.	.	.	.	.	8d#	くらい
8E	4e	.	4g#	.	4a#	.	16c#KL	の
.	.	.	.	.	.	.	8B	やつ
8r	.	.	.	.	.	.	.	.
.	.	.	.	.	.	.	[16A#Jk	を
=57	=57	=57	=57	=57	=57	=57	=57	=57
8AA#	2A#	.	2d#	.	2f#	.	8A#L]	.
8r	.	.	.	.	.	.	16A#L	お
.	.	.	.	.	.	.	16A#JJ	試
8AA#	.	.	.	.	.	.	8BL	.
8r	.	.	.	.	.	.	16c#L	し
.	.	.	.	.	.	.	[16d#JJ	で
8D#L	16r	.	16r	.	16r	.	4d#]	.
.	16BLL	.	16d#LL	.	16f#LL	-pa	.	.
8AA#	16B	.	16d#	.	16f#	pa	.	.
.	16BJJ	.	16d#JJ	.	16f#JJ	la	.	.
8D#	16d#LL	.	16f#LL	.	16g#LL	pa	4r	.
.	16B	.	16d#	.	16f#	la	.	.
8C#J	16d#	.	16f#JJ	.	16g#	pa	.	.
.	16f#JJ	.	16r	.	16dd#JJ	pa	.	.
=58	=58	=58	=58	=58	=58	=58	=58	=58
8C#	16r	.	8r	.	16r	.	8r	.
.	16e	.	.	.	16cc#	pa	.	.
8r	8r	.	8f#L	.	16r	.	8d#L	正
.	.	.	.	.	16r	.	.	.
8C#	4r	.	8d#	.	4r	.	8B	論
8r	.	.	8eJ	.	.	.	8c#J	も
8D#	4r	.	8r	.	4r	.	8r	.
8r	.	.	8f#L	.	.	.	8d#L	暴
8D#	4f#	.	8d#	.	4b	uh	8B	論
8r	.	.	8eJ	.	.	.	8c#J	も
=59	=59	=59	=59	=59	=59	=59	=59	=59
4GG#	4d#	.	8BL	.	4g#	oh-	8F#L	分
.	.	.	8f#J	.	.	.	8d#J	類
4GGn	4dn	.	8eL	.	4gn	.	8c#L	さえ
.	.	.	16f#L	.	.	.	16d#L	で
.	.	.	[16g#JJ	.	.	.	[16eJJ	き
4FF#	4c#	.	16g#LL]	.	4f#	.	16eLL]	.
.	.	.	16f#	.	.	.	16d#	や
.	.	.	16e	.	.	.	16c#	しな
.	.	.	16f#JJ	.	.	.	16d#JJ	い
4BB	4B	.	16eLL	.	4f#	.	16c#LL	街
.	.	.	16d#J	.	.	.	16BJ	.
.	.	.	8d#J	.	.	.	8BJ	を
=60	=60	=60	=60	=60	=60	=60	=60	=60
8Fn	2d#	.	2g#	wa-	2b	-wa	8r	.
8r	.	.	.	.	.	.	8G#	抜け
4F	.	.	.	.	.	.	16BLL	だ
.	.	.	.	.	.	.	16c#JJ	し
.	.	.	.	.	.	.	16r	.
.	.	.	.	.	.	.	[16d#	て
8E	2d#	.	2g#	.	4b	uh-	8d#L]	.
8r	.	.	.	.	.	.	16BK	互い
.	.	.	.	.	.	.	8.G#	.
4E	.	.	.	.	4dd#	.	.	.
.	.	.	.	.	.	.	16c#L	に
.	.	.	.	.	.	.	[16A#JJ	わ
=61	=61	=61	=61	=61	=61	=61	=61	=61
8D#	2c#	.	2f#	.	4cc#	.	8A#L]	.
8r	.	.	.	.	.	.	16F#K	ら
.	.	.	.	.	.	.	8.D#	い
4D#	.	.	.	.	4ff#	.	.	.
.	.	.	.	.	.	.	16A#L	あ
.	.	.	.	.	.	.	[16BJJ	う
8Dn	2fn	.	2g#	.	2b	.	4B]	.
8r	.	.	.	.	.	.	.	.
4D	.	.	.	.	.	.	8r	.
.	.	.	.	.	.	.	16G#LL	目
.	.	.	.	.	.	.	[16F#JJ	指す
=62	=62	=62	=62	=62	=62	=62	=62	=62
8C#	2B	fu-	4e	-uh-	2e	-fu-	8F#L]	.
8r	.	.	.	.	.	.	16BBL	の
.	.	.	.	.	.	.	[16BBJJ	は
4C#	.	.	4b	.	.	.	4BB]	.
8Cn	2A#	.	2d#	.	2e	.	8r	.
8r	.	.	.	.	.	.	16G#KL	メ
.	.	.	.	.	.	.	8.F#	ロウ
4C	.	.	.	.	.	.	.	.
.	.	.	.	.	.	.	16BBL	な
.	.	.	.	.	.	.	[16AA#JJ	エン
=63	=63	=63	=63	=63	=63	=63	=63	=63
1BB	1G#	-uh	4B	-uh	4d#	-uh	16AA#LL]	.
.	.	.	.	.	.	.	[16BBJJ	ディング
.	.	.	.	.	.	.	4BB]	.
.	.	.	2d#	ha	2g#	ha	.	.
.	.	.	.	.	.	.	8r	.
.	.	.	.	.	.	.	2r	.
.	.	.	4B	ah	4f#	ah	.	.
=64	=64	=64	=64	=64	=64	=64	=64	=64
8r	8r	.	8r	.	8r	.	2r	.
16D#LL	16BLL	.	16d#LL	.	16g#LL	pa	.	.
16D#JJ	16BJJ	.	16d#JJ	.	16g#JJ	la	.	.
16C#LL	16BLL	.	16d#LL	.	16g#LL	pa	.	.
16BBJJ	16BJJ	.	16d#JJ	.	16g#JJ	la	.	.
16r	16r	.	16r	.	16r	.	.	.
16F#	16d#	.	16f#	.	16dd#	pa	.	.
16r	16r	.	16r	.	16r	.	4r	.
16F#	16d#	.	16f#	.	16dd#	pa	.	.
8r	8r	.	8r	.	8r	.	.	.
4r	4r	.	8BL	.	4r	.	8G#L	それ
.	.	.	16c#L	.	.	.	16A#L	は
.	.	.	[16d#JJ	.	.	.	[16BJJ	心
=65	=65	=65	=65	=65	=65	=65	=65	=65
8GG#	4r	.	4d#]	.	4r	.	4B]	.
8r	.	.	.	.	.	.	.	.
8.GG#L	4f#	.	8.a#L	.	4a#	woh	8.f#L	臓
16GG#Jk	.	.	16a#Jk	.	.	.	16f#Jk	を
8C#	2fn	.	8.b	.	2g#	oh	8.g#	.
8r	.	.	.	.	.	.	.	.
.	.	.	16r	.	.	.	16r	.
8.C#L	.	.	8g#L	.	.	.	8eL	刹那
.	.	.	16f#L	.	.	.	16d#L	.
16C#Jk	.	.	[16eJJ	.	.	.	[16c#JJ	に
=66	=66	=66	=66	=66	=66	=66	=66	=66
8FF#	4r	.	4e]	.	4r	.	4c#]	.
8r	.	.	.	.	.	.	.	.
8.FF#L	4e	.	8a#L	.	4g#	woh	8f#L	揺らす
.	.	.	16g#L	.	.	.	16eL	も
16FF#Jk	.	.	[16f#JJ	.	.	.	[16d#JJ	の
8BB	2d#	.	8.f#]	.	2f#	oh	8.d#]	.
8r	.	.	.	.	.	.	.	.
.	.	.	16r	.	.	.	16r	.
8.BBL	.	.	4r	.	.	.	8BL	追い
.	.	.	.	.	.	.	16A#L	か
16BBJk	.	.	.	.	.	.	[16G#JJ	け
=67	=67	=67	=67	=67	=67	=67	=67	=67
8E	8.BL	.	8.d#L	.	8.g#L	tu	4G#]	.
8r	.	.	.	.	.	.	.	.
.	16BJk	.	16d#Jk	.	16g#Jk	lu	.	.
8.EL	16r	.	16r	.	16r	.	8.d#L	た
.	8.B	.	8.d#	.	8.g#	tu	.	.
16EJk	.	.	.	.	.	.	16d#Jk	途
8D#	4B	.	8.d#L	.	8.g#L	tu	8c#L	端
8r	.	.	.	.	.	.	16BK	.
.	.	.	16d#Jk	.	16g#Jk	lu	8.G#	に
8.D#L	8r	.	16r	.	16r	.	.	.
.	.	.	8.d#	.	8.g#	tu	.	.
.	16BLL	見	.	.	.	.	16G#L	見
16D#Jk	[16c#JJ	失	.	.	.	.	[16A#JJ	失
=68	=68	=68	=68	=68	=68	=68	=68	=68
8C#	8c#L]	.	4r	.	4r	.	8A#L]	.
8r	16BK	.	.	.	.	.	16G#K	し
.	8A#	なっ	.	.	.	.	8F##X	なっ
8.C#L	.	.	4c#	.	4f#	uh	.	.
.	8B	ちゃう	.	.	.	.	8G#	ちゃう
16C#Jk	[16BJk	の	.	.	.	.	[16G#Jk	の
8G#	8.BL]	.	16d#LL	.	16g#LL	pa	8.G#]	.
.	.	.	16c#JJ	.	16f#JJ	la	.	.
8r	.	.	16r	.	16r	.	.	.
.	16BJk	pa	16B	.	16f#	pa	16r	.
4D#	16r	.	8BL	きっ	16r	.	8G#L	きっ
.	8.c#	pa	.	.	8.f#	pa	.	.
.	.	.	16c#L	と	.	.	16A#L	と
.	.	.	[16d#JJ	永	.	.	[16BJJ	永
=69	=69	=69	=69	=69	=69	=69	=69	=69
8GG#	4r	.	4d#]	.	4r	.	4B]	.
8r	.	.	.	.	.	.	.	.
8.GG#L	4f#	.	8.a#L	.	4a#	woh	8.f#L	遠
16GG#Jk	.	.	16a#Jk	.	.	.	16f#Jk	が
8C#	2fn	.	8.b	.	2g#	oh	8.g#	.
8r	.	.	.	.	.	.	.	.
.	.	.	16r	.	.	.	16r	.
8.C#L	.	.	8g#L	.	.	.	8eL	どっ
.	.	.	16f#L	.	.	.	16d#L	か
16C#Jk	.	.	[16eJJ	.	.	.	[16c#JJ	に
=70	=70	=70	=70	=70	=70	=70	=70	=70
8FF#	4r	.	4e]	.	4r	.	4c#]	.
8r	.	.	.	.	.	.	.	.
8.C#L	4e	.	8a#L	.	4g#	woh	8f#L	あるん
.	.	.	16g#L	.	.	.	16eL	だ
16CnJk	.	.	[16f#JJ	.	.	.	[16d#JJ	と
8BB	2d#	.	8.f#]	.	2f#	oh	8.d#]	.
8r	.	.	.	.	.	.	.	.
.	.	.	16r	.	.	.	16r	.
8.BBL	.	.	4r	.	.	.	8BL	明後日
.	.	.	.	.	.	.	16A#L	.
16BBJk	.	.	.	.	.	.	[16G#JJ	を
=71	=71	=71	=71	=71	=71	=71	=71	=71
8E	8r	.	8r	.	4r	.	4G#]	.
8r	8B	.	8d#	pa	.	.	.	.
8.EL	16r	.	16r	.	16f#LL	.	16d#LL	探し
.	8B	.	8d#	pa	16f#	.	16d#	.
.	.	.	.	.	16f#	.	16d#	.
16EJk	16r	.	16r	.	[16g#JJ	.	[16eJJ	回る
8D#	8.BL	.	8.d#L	pa	8g#L]	.	8eL]	.
8r	.	.	.	.	16f#K	.	16d#K	の
.	16BJk	.	16d#Jk	pa	8.e	.	8.c#	も
8.D#L	4r	.	4r	.	.	.	.	.
.	.	.	.	.	16d#L	.	16BL	悪
16D#Jk	.	.	.	.	[16c#JJ	.	[16A#JJ	.
=72	=72	=72	=72	=72	=72	=72	=72	=72
8FF#	2c#	.	2e	fu	8c#L]	.	8A#L]	く
8r	.	.	.	.	16BK	.	16G#K	は
.	.	.	.	.	8.c#	.	8.A#	ない
8.FF#L	.	.	.	.	.	.	.	.
.	.	.	.	.	[16d#Jk	.	16BL	で
16FF#Jk	.	.	.	.	4d#]	.	[16BJJ	しょう
8BB	4d#	.	4f#	ha	.	.	4B]	.
8r	.	.	.	.	.	.	.	.
.	.	.	.	.	16r	.	.	.
4BB	4f#	.	4a#	ah	4r	.	4r	.
=73	=73	=73	=73	=73	=73	=73	=73	=73
4E	4g#	dun	8r	.	8r	.	8r	.
.	.	.	8b	.	8g#	tun	16BLL	お
.	.	.	.	.	.	.	[16A#JJ	前
4GG#	4c#	dun	8r	.	8r	.	8A#L]	.
.	.	.	8a#	.	8a#	tun	16g#L	が
.	.	.	.	.	.	.	[16f#JJ	どっ
4D#	4f#	dun	8r	.	8r	.	8f#L]	.
.	.	.	8cc#	.	8f#	tun	16BL	か
.	.	.	.	.	.	.	[16c#JJ	に
4AA#	4d#	dun	8r	.	8r	.	8c#L]	.
.	.	.	8b	.	8g#	tun	16d#L	消
.	.	.	.	.	.	.	[16c#JJ	え
=74	=74	=74	=74	=74	=74	=74	=74	=74
4C#	4e	dun	8r	.	8r	.	8c#L]	.
.	.	.	8a#	.	8f#	tun	16BL	た
.	.	.	.	.	.	.	[16eJJ	朝
4D#	4f#	dun	8r	.	8r	.	16eLL]	.
.	.	.	.	.	.	.	16d#	.
.	.	.	8b	.	8g#	tun	16c#	よ
.	.	.	.	.	.	.	[16BJJ	り
2BB	2d#	ha	16bLL	.	16f#LL	pa	8B]	.
.	.	.	16a#	.	16e	la	.	.
.	.	.	16g#	.	16d#	pa	8r	.
.	.	.	[16f#JJ	.	[16d#JJ	pa	.	.
.	.	.	16f#LL]	.	16d#LL]	.	8r	.
.	.	.	16eJ	.	16c#J	la	.	.
.	.	.	8d#J	.	8BJ	pa	16G#LL	こ
.	.	.	.	.	.	.	16A#JJ	ん
=75	=75	=75	=75	=75	=75	=75	=75	=75
2C#	2G#	.	2d#	.	2g#	uh-	8.BL	な
.	.	.	.	.	.	.	16BJk	夜
.	.	.	.	.	.	.	16A#KL	.
.	.	.	.	.	.	.	8G#	の
.	.	.	.	.	.	.	[16F#Jk	方
2BB	2B	.	2d#	.	2f#	.	16F#LL]	.
.	.	.	.	.	.	.	16EJ	.
.	.	.	.	.	.	.	8D#J	が
.	.	.	.	.	.	.	8r	.
.	.	.	.	.	.	.	16BLL	ま
.	.	.	.	.	.	.	[16A#JJ	だ
=76	=76	=76	=76	=76	=76	=76	=76	=76
2D#	2A#	.	2c#	.	2f#	.	4A#]	.
.	.	.	.	.	.	.	16r	.
.	.	.	.	.	.	.	16G#LL	ま
.	.	.	.	.	.	.	16A#	し
.	.	.	.	.	.	.	[16BJJ	さ
4BB	4B	.	4B	.	4d#	-uh	4.B]	.
4r	4r	.	4r	.	4r	.	.	.
.	.	.	.	.	.	.	8r	.
=77	=77	=77	=77	=77	=77	=77	=77	=77
2G#	2B#X	.	2B#X	fu-	4r	.	8B#XL	肺
.	.	.	.	.	.	.	8c#	.
.	.	.	.	.	8g#	tun	8d#	に
.	.	.	.	.	8r	.	[8f#J	睡
2B	2d#	.	2f#	.	4r	.	8f#L]	.
.	.	.	.	.	.	.	8e#X	蓮
.	.	.	.	.	8ddn	tun	8d#	.
.	.	.	.	.	8r	.	[8dnJ	遠
=78	=78	=78	=78	=78	=78	=78	=78	=78
2E	2G#	.	2B	.	4r	.	8dL]	.
.	.	.	.	.	.	.	8c#	く
.	.	.	.	.	8f#	tun	8B	の
.	.	.	.	.	8r	.	[8c#J	サイ
2An	2c#	.	2e	.	4r	.	8c#L]	.
.	.	.	.	.	.	.	8AnJ	レン
.	.	.	.	.	8cc#	tun	8r	.
.	.	.	.	.	8r	.	16G#LL	ひ
.	.	.	.	.	.	.	16A#XJJ	び
=79	=79	=79	=79	=79	=79	=79	=79	=79
2E	2G#	.	2B	.	4r	.	8BL	き
.	.	.	.	.	.	.	8A#	あ
.	.	.	.	.	8d#	tun	8G#	う
.	.	.	.	.	8r	.	[8F##XJ	境
2D#	2F##X	.	2A#	.	4r	.	8F##L]	.
.	.	.	.	.	.	.	8E#X	界
.	.	.	.	.	8f##X	tun	8F##	.
.	.	.	.	.	8r	.	[8G#J	線
=80	=80	=80	=80	=80	=80	=80	=80	=80
1G#	1B	fu	4d#	-fu	1g#	fu	4G#]	.
.	.	.	2A#	ha	.	.	4r	.
.	.	.	.	.	.	.	2r	.
.	.	.	4B	ah	.	.	.	.
=81	=81	=81	=81	=81	=81	=81	=81	=81
2G#	2B#X	.	2B#X	fu-	4r	.	8B#XL	愛
.	.	.	.	.	.	.	8c#	.
.	.	.	.	.	8g#	tun	8d#	し
.	.	.	.	.	8r	.	[8f#J	合う
2B	2d#	.	2f#	.	4r	.	8f#L]	.
.	.	.	.	.	.	.	8e#X	様
.	.	.	.	.	8ddn	tun	8d#	に
.	.	.	.	.	8r	.	[8dnJ	喧
=82	=82	=82	=82	=82	=82	=82	=82	=82
2E	2G#	.	2B	.	4r	.	8dL]	.
.	.	.	.	.	.	.	8c#	嘩
.	.	.	.	.	8f#	tun	8B	し
.	.	.	.	.	8r	.	[8c#J	よう
2An	2c#	.	2e	.	4r	.	8c#L]	.
.	.	.	.	.	.	.	8AnJ	ぜ
.	.	.	.	.	8cc#	tun	8r	.
.	.	.	.	.	8r	.	16G#LL	遣
.	.	.	.	.	.	.	16A#XJJ	る
=83	=83	=83	=83	=83	=83	=83	=83	=83
2E	2G#	.	2B	.	4r	.	8d#L	瀬
.	.	.	.	.	.	.	8e	無
.	.	.	.	.	8g#	tun	8f#	さ
.	.	.	.	.	8r	.	[8bJ	引っ
2D#	2F##X	.	2A#	.	4r	.	8bL]	.
.	.	.	.	.	.	.	8a#J	さ
.	.	.	.	.	8f##X	tun	8.cc#L	げ
.	.	.	.	.	8r	.	.	.
.	.	.	.	.	.	.	[16bJk	て
=84	=84	=84	=84	=84	=84	=84	=84	=84
1G#	1B	fu	4d#	-fu	4r	.	4b]	.
.	.	.	2A#	ha	2a#	ha	4r	.
.	.	.	.	.	.	.	2r	.
.	.	.	4B	ah	4b	ah	.	.
=85	=85	=85	=85	=85	=85	=85	=85	=85
4G#	2B#X	.	2B#X	fu-	2g#	fu	8B#XL	肺
.	.	.	.	.	.	.	8c#	.
16r	.	.	.	.	.	.	8d#	に
8.G#	.	.	.	.	.	.	.	.
.	.	.	.	.	.	.	[8f#J	睡
4B	2d#	.	2f#	.	4a#	uh-	8f#L]	.
.	.	.	.	.	.	.	8e#X	蓮
16r	.	.	.	.	4b#X	.	8d#	.
8.B	.	.	.	.	.	.	.	.
.	.	.	.	.	.	.	[8dnJ	遠
=86	=86	=86	=86	=86	=86	=86	=86	=86
4E	2G#	.	2B	.	4f#	.	8dL]	.
.	.	.	.	.	.	.	8c#	く
16r	.	.	.	.	4e	.	8B	の
8.E	.	.	.	.	.	.	.	.
.	.	.	.	.	.	.	[8c#J	サイ
4G##X	2c#	.	2e	.	4f#	.	8c#L]	.
.	.	.	.	.	.	.	8AnJ	レン
16r	.	.	.	.	4g#	.	8r	.
8.G##	.	.	.	.	.	.	.	.
.	.	.	.	.	.	.	16G#LL	ひ
.	.	.	.	.	.	.	16A#XJJ	び
=87	=87	=87	=87	=87	=87	=87	=87	=87
4E	2G#	.	2B	.	4d#	.	8BL	き
.	.	.	.	.	.	.	8A#	合
16r	.	.	.	.	4g#	.	8G#	う
8.E	.	.	.	.	.	.	.	.
.	.	.	.	.	.	.	[8F##XJ	境
4D#	2Gn	.	2A#	.	2gn	.	8F##L]	.
.	.	.	.	.	.	.	8E#X	界
16r	.	.	.	.	.	.	8F##	.
8.D#	.	.	.	.	.	.	.	.
.	.	.	.	.	.	.	[8G#J	線
=88	=88	=88	=88	=88	=88	=88	=88	=88
1GG#	1B	fu	4d#	-fu	4r	.	4G#]	.
.	.	.	2A#	ha	2cc#	-ha	4r	.
.	.	.	.	.	.	.	2r	.
.	.	.	4B	ah	4b	ah	.	.
=89	=89	=89	=89	=89	=89	=89	=89	=89
2G#	2B#X	.	2B#X	.	2f#	fu-	8B#XL	愛
.	.	.	.	.	.	.	8c#	.
.	.	.	.	.	.	.	8d#	し
.	.	.	.	.	.	.	[8f#J	合う
2B	2d#	.	2f#	.	2an	.	8f#L]	.
.	.	.	.	.	.	.	8e#X	様
.	.	.	.	.	.	.	8d#	に
.	.	.	.	.	.	.	[8dnJ	喧
=90	=90	=90	=90	=90	=90	=90	=90	=90
2E	2G#	.	2B	.	2e	.	8dL]	.
.	.	.	.	.	.	.	8c#	嘩
.	.	.	.	.	.	.	8B	し
.	.	.	.	.	.	.	[8c#J	よう
2An	2c#	.	2e	.	2an	.	8c#L]	.
.	.	.	.	.	.	.	8AnJ	ぜ
.	.	.	.	.	.	.	8r	.
.	.	.	.	.	.	.	16G#LL	遣
.	.	.	.	.	.	.	16A#XJJ	る
=91	=91	=91	=91	=91	=91	=91	=91	=91
2E	2G#	.	2B	.	2e	.	8d#L	瀬
.	.	.	.	.	.	.	8e	無
.	.	.	.	.	.	.	8f#	さ
.	.	.	.	.	.	.	[8bJ	引
2D#	2F##X	.	2A#	.	2f##X	.	8bL]	.
.	.	.	.	.	.	.	8a#J	さ
.	.	.	.	.	.	.	8.cc#L	げ
.	.	.	.	.	.	.	[16bJk	て
=92	=92	=92	=92	=92	=92	=92	=92	=92
1G#	1B	.	1d#	.	1g#	-ah	4b]	.
.	.	.	.	.	.	.	4r	.
.	.	.	.	.	.	.	2r	.
=93	=93	=93	=93	=93	=93	=93	=93	=93
1r	2r	.	2r	.	2r	.	2r	.
.	4r	.	4r	.	4r	.	4r	.
.	8eL	.	8BL	.	8g#L	たっ	8G#L	たっ
.	16f#L	.	16c#L	.	16a#L	た	16A#L	た
.	[16g#JJ	.	[16d#JJ	.	[16bJJ	一	[16BJJ	一
=94	=94	=94	=94	=94	=94	=94	=94	=94
8GG#	4g#]	.	4d#]	.	4b]	.	4B]	.
8r	.	.	.	.	.	.	.	.
8.GG#L	8.a#L	.	8.a#L	.	8.cc#L	瞬	8.f#L	瞬
16GG#Jk	16a#Jk	.	16a#Jk	.	16cc#Jk	の	16f#Jk	の
8C#	2b	oh	8.b	.	2b	oh	8.g#	.
8r	.	.	.	.	.	.	.	.
.	.	.	16r	.	.	.	16r	.
8.C#L	.	.	16g#KL	.	.	.	16eKL	こ
.	.	.	8f#	.	.	.	8d#	の
16C#Jk	.	.	[16eJk	.	.	.	[16c#Jk	きら
=95	=95	=95	=95	=95	=95	=95	=95	=95
8FF#	4r	.	4e]	.	4r	.	4c#]	.
8r	.	.	.	.	.	.	.	.
8.FF#L	4e	ha	8a#L	.	4g#	ha	8f#L	め
.	.	.	16g#L	.	.	.	16eL	き
16FF#Jk	.	.	[16f#JJ	.	.	.	[16d#JJ	を
8BB	2d#	ah	8.f#]	.	2f#	ah	8.d#]	.
8r	.	.	.	.	.	.	.	.
.	.	.	16r	.	.	.	16r	.
8.BBL	.	.	4r	.	.	.	16BKL	食
.	.	.	.	.	.	.	8A#	べ
16BBJk	.	.	.	.	.	.	[16G#Jk	尽く
=96	=96	=96	=96	=96	=96	=96	=96	=96
8E	8.BL	.	8.d#L	.	8.f#L	tu	4G#]	.
8r	.	.	.	.	.	.	.	.
.	16BJk	.	16d#Jk	.	16f#Jk	lu	.	.
8.EL	16r	.	16r	.	16r	.	8.d#L	そう
.	8.B	.	8.d#	.	8.f#	tu	.	.
16EJk	.	.	.	.	.	.	16d#Jk	二
8D#	4B	.	8.d#L	.	8.f#L	tu	8c#L	人
8r	.	.	.	.	.	.	16BK	.
.	.	.	16d#Jk	.	16f#Jk	lu	8.G#	で
8.D#L	8r	.	16r	.	16r	.	.	.
.	.	.	8.d#	.	8.f#	tu	.	.
.	16BLL	く	.	.	.	.	16G#L	く
16D#Jk	[16c#JJ	た	.	.	.	.	[16A#JJ	た
=97	=97	=97	=97	=97	=97	=97	=97	=97
8C#	8c#L]	.	4r	.	4r	.	8A#L]	.
8r	16BK	ば	.	.	.	.	16G#K	ば
.	8A#	る	.	.	.	.	8F##X	る
8.C#L	.	.	4c#	.	4b	ah	.	.
.	8B	ま	.	.	.	.	8G#	ま
16C#Jk	[16BJk	で	.	.	.	.	[16G#Jk	で
8G#	8.BL]	.	16d#LL	.	16cc#LL	pa	8.G#]	.
.	.	.	16c#JJ	.	16bJJ	la	.	.
8r	.	.	16r	.	16r	.	.	.
.	16BJk	pa	16B	.	16b	pa	16r	.
4D#	16r	.	8BL	.	16r	.	8G#L	そし
.	8.c#	pa	.	.	8.b	pa	.	.
.	.	.	16c#L	.	.	.	16A#L	て
.	.	.	[16d#JJ	.	.	.	[16BJJ	幸
=98	=98	=98	=98	=98	=98	=98	=98	=98
8GG#	4r	.	4d#]	.	4r	.	4B]	.
8r	.	.	.	.	.	.	.	.
8.GG#L	4f#	.	8.a#L	.	4a#	oh	8.f#L	運
16GG#Jk	.	.	16a#Jk	.	.	.	16f#Jk	を
8C#	2fn	.	8.b	.	2g#	oh	8.g#	.
8r	.	.	.	.	.	.	.	.
.	.	.	16r	.	.	.	16r	.
8.C#L	.	.	16g#KL	.	.	.	8eL	僕
.	.	.	8f#	.	.	.	.	.
.	.	.	.	.	.	.	16d#L	ら
16C#Jk	.	.	[16eJk	.	.	.	[16c#JJ	に
=99	=99	=99	=99	=99	=99	=99	=99	=99
8FF#	4r	.	4e]	.	4r	.	4c#]	.
8r	.	.	.	.	.	.	.	.
8.C#L	4e	.	8a#L	.	4g#	oh	8f#L	祈
.	.	.	16g#L	.	.	.	16eL	り
16CnJk	.	.	[16f#JJ	.	.	.	[16d#JJ	を
8BB	2d#	.	8.f#]	.	2f#	oh	8.d#]	.
8r	.	.	.	.	.	.	.	.
.	.	.	16r	.	.	.	16r	.
8.BBL	.	.	4r	.	.	.	8BL	まだ
.	.	.	.	.	.	.	16A#L	行
16BBJk	.	.	.	.	.	.	[16G#JJ	こう
=100	=100	=100	=100	=100	=100	=100	=100	=100
8E	8r	.	8r	.	4r	.	4G#]	.
8r	8B	.	8d#	pa	.	.	.	.
8.EL	16r	.	16r	.	16f#LL	.	16d#LL	だ
.	8B	.	8d#	pa	16f#	.	16d#	れ
.	.	.	.	.	16f#	.	16d#	も
16EJk	16r	.	16r	.	[16g#JJ	.	[16eJJ	追い
8D#	8.BL	.	8.d#L	pa	8g#L]	.	8eL]	つ
8r	.	.	.	.	16f#K	.	16d#K	け
.	16BJk	.	16d#Jk	pa	8.e	.	8.c#	ない
8.D#L	4r	.	4r	.	.	.	.	.
.	.	.	.	.	16d#L	.	16BL	く
16D#Jk	.	.	.	.	[16c#JJ	.	[16A#JJ	らい
=101	=101	=101	=101	=101	=101	=101	=101	=101
8FF#	8r	.	8r	.	8c#L]	.	8A#L]	.
8r	8c#	.	8e	pa	16BK	.	16G#K	の
.	.	.	.	.	8.c#	.	8.A#	スピー
8.FF#L	16r	.	16r	.	.	.	.	.
.	8c#	.	8e	pa	.	.	.	.
.	.	.	.	.	16d#L	.	16BL	ド
16FF#Jk	16r	.	16r	.	[16d#JJ	.	[16BJJ	で
8BB	8.d#L	.	8.f#L	pa	4d#]	.	4B]	.
8r	.	.	.	.	.	.	.	.
.	16d#Jk	.	16f#Jk	pa	.	.	.	.
4BB	16r	.	16r	.	4r	.	8G#L	それ
.	8f#	.	8a#L	pa	.	.	.	.
.	.	.	.	.	.	.	16A#L	は
.	16r	.	[16g#Jk	心	.	.	[16BJJ	心
=102	=102	=102	=102	=102	=102	=102	=102	=102
8GG#	4r	.	4g#]	.	4r	.	4B]	.
8r	.	.	.	.	.	.	.	.
8.GG#L	4f#	.	8.a#L	臓	4a#	ah	8.f#L	臓
16GG#Jk	.	.	16a#Jk	を	.	.	16f#Jk	を
8C#	2fn	.	8.b	.	2g#	ah	8.g#	.
8r	.	.	.	.	.	.	.	.
.	.	.	16r	.	.	.	16r	.
8.C#L	.	.	8dd#L	刹	.	.	8bL	刹
.	.	.	16cc#L	那に	.	.	16a#L	那
16C#Jk	.	.	[16bJJ	.	.	.	[16f#JJ	に
=103	=103	=103	=103	=103	=103	=103	=103	=103
8FF#	4r	.	4b]	.	4r	.	4f#]	.
8r	.	.	.	.	.	.	.	.
8.FF#L	8c#L	揺らす	8a#L	揺らす	4g#	ah	8eL	揺らす
.	16BL	も	16g#L	も	.	.	16d#L	も
16FF#Jk	[16BJJ	の	[16f#JJ	の	.	.	[16d#JJ	の
8BB	2B]	.	8.f#]	.	2f#	ah	8.d#]	.
8r	.	.	.	.	.	.	.	.
.	.	.	16r	.	.	.	16r	.
8.BBL	.	.	4r	.	.	.	8BL	追い
.	.	.	.	.	.	.	16A#L	か
16BBJk	.	.	.	.	.	.	[16G#JJ	け
=104	=104	=104	=104	=104	=104	=104	=104	=104
8E	8.BL	.	8.d#L	.	8.f#L	pa	4G#]	.
8r	.	.	.	.	.	.	.	.
.	16BJk	.	16d#Jk	.	16f#Jk	la	.	.
8.EL	16r	.	16r	.	16r	.	8.d#L	た
.	8.B	.	8.d#	.	8.f#	pa	.	.
16EJk	.	.	.	.	.	.	16d#Jk	途
8D#	4B	.	8.d#L	.	8.f#L	pa	8c#L	端
8r	.	.	.	.	.	.	16BK	.
.	.	.	16d#Jk	.	16f#Jk	la	8.G#	に
8.D#L	8r	.	16r	.	16r	.	.	.
.	.	.	8.d#	.	8.f#	pa	.	.
.	16f#LL	見	.	.	.	.	16G#L	見
16D#Jk	[16g#JJ	失	.	.	.	.	[16eJJ	失
=105	=105	=105	=105	=105	=105	=105	=105	=105
8C#	8g#L]	.	4r	.	4r	.	8eL]	.
8r	16a#K	.	.	.	.	.	16f#K	.
.	8f#	なっ	.	.	.	.	8d#	なっ
8.C#L	.	.	4c#	.	4b	oh	.	.
.	8e	ちゃう	.	.	.	.	8c#	ちゃう
16C#Jk	[16d#Jk	の	.	.	.	.	[16BJk	の
8G#	8.d#L]	.	16d#LL	.	16cc#LL	pa	8.B]	.
.	.	.	16c#JJ	.	16bJJ	la	.	.
8r	.	.	16r	.	16r	.	.	.
.	16BJk	pa	16B	.	16b	pa	16r	.
4D#	16r	.	8BL	.	16r	.	8G#L	きっ
.	8.c#	pa	.	.	8.b	pa	.	.
.	.	.	16c#L	.	.	.	16A#L	と
.	.	.	16d#JJ	.	.	.	[16BJJ	永
=106	=106	=106	=106	=106	=106	=106	=106	=106
8GG#	4r	.	4d#	.	4r	.	4B]	.
8r	.	.	.	.	.	.	.	.
8.GG#L	4f#	.	8.a#L	.	4a#	ah	8.f#L	遠
16GG#Jk	.	.	16a#Jk	.	.	.	16f#Jk	が
8C#	2fn	.	8.b	.	2g#	ah	8.g#	.
8r	.	.	.	.	.	.	.	.
.	.	.	16r	.	.	.	16r	.
8.C#L	.	.	16g#KL	.	.	.	8eL	どっ
.	.	.	8f#	.	.	.	.	.
.	.	.	.	.	.	.	16d#L	か
16C#Jk	.	.	[16eJk	.	.	.	[16c#JJ	に
=107	=107	=107	=107	=107	=107	=107	=107	=107
8FF#	4r	.	4e]	.	4r	.	4c#]	.
8r	.	.	.	.	.	.	.	.
8.C#L	4e	.	8a#L	.	4g#	ah	8f#L	あるん
.	.	.	16g#L	.	.	.	16eL	だ
16CnJk	.	.	[16f#JJ	.	.	.	[16d#JJ	と
8BB	2d#	.	8.f#]	.	2f#	ah	8.d#]	.
8r	.	.	.	.	.	.	.	.
.	.	.	16r	.	.	.	16r	.
8.BBL	.	.	4r	.	.	.	8BL	明後日を
.	.	.	.	.	.	.	16A#L	.
16BBJk	.	.	.	.	.	.	[16G#JJ	.
=108	=108	=108	=108	=108	=108	=108	=108	=108
8E	8r	.	8r	.	4r	.	4G#]	.
8r	8B	.	8d#	pa	.	.	.	.
8.EL	16r	.	16r	.	16f#LL	.	16d#LL	さ
.	8B	.	8d#	pa	16f#	.	16d#	が
.	.	.	.	.	16f#	.	16d#	し
16EJk	16r	.	16r	.	[16g#JJ	.	[16eJJ	回る
8D#	8.BL	.	8.d#L	pa	8g#L]	.	8eL]	.
8r	.	.	.	.	16f#K	.	16d#K	の
.	16BJk	.	16d#Jk	pa	8.e	.	8.c#	も
8.D#L	4r	.	4r	.	.	.	.	.
.	.	.	.	.	16d#L	.	16BL	悪
16D#Jk	.	.	.	.	[16c#JJ	.	[16A#JJ	.
=109	=109	=109	=109	=109	=109	=109	=109	=109
8FF#	2c#	.	2e	woh	8c#L]	.	8A#L]	く
8r	.	.	.	.	16BK	.	16G#K	は
.	.	.	.	.	8.c#	.	8.A#	ない
8.FF#L	.	.	.	.	.	.	.	.
.	.	.	.	.	16d#L	.	16BL	で
16FF#Jk	.	.	.	.	[16d#JJ	.	[16BJJ	しょう
8BB	4d#	.	4f#	ha	4d#]	.	4B]	.
8r	.	.	.	.	.	.	.	.
4BB	4f#	.	4a#	ah	4r	.	4r	.
=110	=110	=110	=110	=110	=110	=110	=110	=110
4E	4g#	.	8r	.	8r	.	8r	.
.	.	.	8b	.	8g#	tun	16BLL	い
.	.	.	.	.	.	.	[16A#JJ	な
4GG#	4c#	.	8r	.	8r	.	8A#L]	.
.	.	.	8a#	.	8a#	tun	16g#L	ずま
.	.	.	.	.	.	.	[16f#JJ	の
4D#	4f#	.	8r	.	8r	.	8f#L]	.
.	.	.	8cc#	.	8f#	tun	16a#L	様
.	.	.	.	.	.	.	[16bJJ	に
4AA#	8bL	.	8r	.	8r	.	8bL]	.
.	16bL	.	8b	.	8g#	tun	16f#L	生き
.	[16a#JJ	.	.	.	.	.	[16eJJ	.
=111	=111	=111	=111	=111	=111	=111	=111	=111
4C#	8a#L]	.	8r	.	8r	.	8eL]	.
.	16g#L	.	8a#	.	8f#	tun	16d#L	て
.	[16f#JJ	.	.	.	.	.	[16c#JJ	たい
4D#	8f#L]	.	8r	.	8r	.	8c#L]	.
.	16eL	.	8b	.	8g#	tun	16BL	だけ
.	[16d#JJ	.	.	.	.	.	[16BJJ	.
2BB	2d#]	.	16bLL	.	16f#LL	pa	8B]	.
.	.	.	16a#	.	16e	la	.	.
.	.	.	16g#	.	16d#	pa	8r	.
.	.	.	[16f#JJ	.	[16d#JJ	pa	.	.
.	.	.	16f#LL]	.	16d#LL]	.	8r	.
.	.	.	16eJ	.	16c#J	la	.	.
.	.	.	8d#J	.	8BJ	pa	16G#LL	お
.	.	.	.	.	.	.	16A#JJ	ま
=112	=112	=112	=112	=112	=112	=112	=112	=112
2C#	2G#	.	4r	.	2g#	woh	8.BL	え
.	.	.	.	.	.	.	16BJk	は
.	.	.	4r	.	.	.	8A#L	どう
.	.	.	.	.	.	.	16G#L	し
.	.	.	.	.	.	.	[16F#JJ	たい
4.BB	4.B	.	4r	.	4.f#	oh	4F#]	？
.	.	.	8r	.	.	.	8r	.
8r	8r	.	8d#	.	8r	.	8B	返
=113	=113	=113	=113	=113	=113	=113	=113	=113
2AA#	2r	.	8.c#L	.	2r	.	8.A#L	事
.	.	.	16A#Jk	.	.	.	16F#Jk	は
.	.	.	16A#LL	.	.	.	16F#LL	い
.	.	.	16A#JJ	.	.	.	16F#JJ	ら
.	.	.	4B	.	.	.	4G#	ない
2GG#	8r	.	.	.	8r	.	.	.
.	[8d#	.	[8B	.	[8f#	ha	8r	.
.	4d#]	.	4B]	.	4f#]	.	4r	.
=114	=114	=114	=114	=114	=114	=114	=114	=114
16D#LL	16g#LL	.	16d#LL	.	16dd#LL	ba	16BLL	.
16D#JJ	16g#JJ	.	16d#JJ	.	16dd#JJ	ba	16BJJ	.
8r	8r	.	8r	.	8r	.	8r	.
4r	4r	.	4r	.	4r	.	4r	.
2r	2r	.	2r	.	2r	.	2r	.
==	==	==	==	==	==	==	==	==
*-	*-	*-	*-	*-	*-	*-	*-	*-
